svg/gapUpArrow.svg

<svg width="284" height="284" viewBox="0 0 284 284" fill="none" xmlns="http://www.w3.org/2000/svg">
<path fill-rule="evenodd" clip-rule="evenodd" d="M248.172 157.573C247.358 159.35 245.58 160.491 243.625 160.491H213.692V225.387C213.692 228.148 211.453 230.387 208.692 230.387H175.381C172.619 230.387 170.381 228.148 170.381 225.387V160.491H140.448C138.493 160.491 136.716 159.35 135.902 157.573C135.088 155.796 135.384 153.706 136.662 152.225L188.25 92.4108C189.199 91.3088 190.582 90.6768 192.035 90.6768C193.49 90.6768 194.873 91.3088 195.822 92.4108L247.412 152.225C248.69 153.706 248.986 155.796 248.172 157.573Z" fill="#1A1919"/>
<path fill-rule="evenodd" clip-rule="evenodd" d="M47.8389 173.296H119.839C122.6 173.296 124.839 175.534 124.839 178.296C124.839 181.058 122.6 183.296 119.839 183.296H47.8389C45.0769 183.296 42.8389 181.058 42.8389 178.296C42.8389 175.534 45.0769 173.296 47.8389 173.296Z" fill="#1A1919"/>
<path fill-rule="evenodd" clip-rule="evenodd" d="M47.8389 127.057H119.839C122.6 127.057 124.839 129.295 124.839 132.057C124.839 134.819 122.6 137.057 119.839 137.057H47.8389C45.0769 137.057 42.8389 134.819 42.8389 132.057C42.8389 129.295 45.0769 127.057 47.8389 127.057Z" fill="#1A1919"/>
<path fill-rule="evenodd" clip-rule="evenodd" d="M220.844 73.1401H45.8452C40.3222 73.1401 35.8452 68.6621 35.8452 63.1401C35.8452 57.6181 40.3222 53.1401 45.8452 53.1401H220.844C226.367 53.1401 230.844 57.6181 230.844 63.1401C230.844 68.6621 226.367 73.1401 220.844 73.1401Z" fill="#1A1919"/>
</svg>

<svg width="284" height="284" viewBox="0 0 284 284" xmlns="http://www.w3.org/2000/svg">
    <g fill="#1A1918" fill-rule="evenodd">
        <path d="M248.172 157.573a5.003 5.003 0 0 1-4.547 2.918h-29.933v64.896a5 5 0 0 1-5 5h-33.31a5 5 0 0 1-5-5V160.49h-29.934a5.002 5.002 0 0 1-3.786-8.266L188.25 92.41a4.995 4.995 0 0 1 3.785-1.734c1.455 0 2.838.632 3.787 1.734l51.59 59.814a5 5 0 0 1 .76 5.348M47.839 173.297h72a5 5 0 1 1 0 10h-72a5 5 0 0 1-5-5 5 5 0 0 1 5-5M47.839 127.057h72a5 5 0 1 1 0 10h-72a5 5 0 0 1-5-5 5 5 0 0 1 5-5M220.844 73.14H45.845c-5.523 0-10-4.478-10-10s4.477-10 10-10h175c5.522 0 10 4.478 10 10s-4.478 10-10 10"/>
    </g>
</svg>
